X:46
T: DASS IM WALD FINSTR IS
N: E1042
O: Europa, Mitteleuropa, Oesterreich
R: Tanz - Lied; Liebe, Klage; Jodler
M: 3/4
L: 1/8
K: G
 | (3BdgG4 | DGGBBd | d3cF2 |
(3AcfF4 | DFF2F2 | d6 |
(3BdgG4 | DGGBBd | d3cF2 |
(3AcfF4 | DFdccF | G4z2

@@@ Tune index: 4730
